public/static/plane.svg

<?xml version="1.0" ?><svg height="586" id="svg2302" version="1.0" width="586" xmlns="http://www.w3.org/2000/svg" xmlns:cc="http://web.resource.org/cc/" xmlns:dc="http://purl.org/dc/elements/1.1/" xmlns:inkscape="http://www.inkscape.org/namespaces/inkscape" xmlns:rdf="http://www.w3.org/1999/02/22-rdf-syntax-ns#" xmlns:sodipodi="http://inkscape.sourceforge.net/DTD/sodipodi-0.dtd" xmlns:svg="http://www.w3.org/2000/svg"><defs id="defs2305"/><g id="g2319" transform="translate(-11.34622,-14.18278)"><path d="M 65.24074,311.75483 L 65.24074,76.587005 L 300.82685,76.587005 L 536.41295,76.587005 L 536.41295,311.75483 L 536.41295,546.92266 L 300.82685,546.92266 L 65.24074,546.92266 L 65.24074,311.75483 z " id="path2315" style="fill:#fdfdfd"/><path d="M 69.85131,593.99848 C 44.424185,591.53143 28.894638,579.0922 22.323616,555.9286 C 20.581661,549.78801 20.499958,538.74753 20.499958,309.5 C 20.499958,82.724487 20.597963,69.117846 22.278561,62.564614 C 24.934442,52.208417 29.745831,43.263196 36.025891,37.005902 C 42.676942,30.378962 48.899241,26.884865 59.530076,23.807263 L 67.499958,21.5 L 306.99996,21.5 C 535.65719,21.5 546.79061,21.582461 552.92,23.321439 C 576.81944,30.101988 588.88393,45.335816 591.97739,72.639194 C 592.77758,79.701729 593.01016,148.62005 592.79698,315.5 L 592.49934,548.5 L 590.31509,556.15411 C 587.26349,566.84757 583.64145,573.49963 577.64881,579.41637 C 571.35749,585.62799 564.62013,589.34073 554.32448,592.2696 L 546.49996,594.4955 L 311.99996,594.61804 C 183.02496,594.68544 74.058066,594.40664 69.85131,593.99848 z M 443.74058,515.75962 C 456.05774,503.4546 462.99601,495.79485 462.98899,494.50962 C 462.98296,493.40433 449.48296,440.33555 432.98899,376.57901 C 416.49502,312.82246 402.99996,259.73155 402.99996,258.59919 C 402.99996,257.21345 421.27411,238.22604 458.89724,200.52018 C 520.95259,138.32838 520.36739,139.02857 520.34363,127 C 520.3281,119.14158 518.52556,114.6104 513.05327,108.67366 C 507.13501,102.25311 500.48134,99.639717 491.54018,100.22387 C 486.99552,100.52079 482.90484,101.48381 479.99996,102.94067 C 476.84583,104.52253 458.85452,121.80981 419.8451,160.74158 L 364.19025,216.28564 L 242.4734,184.0176 L 120.75656,151.74957 L 100.62826,171.92174 C 82.881492,189.70718 80.69731,192.24219 82.167943,193.34722 C 83.085335,194.03655 127.74412,217.75292 181.40969,246.05027 C 235.07526,274.34762 278.98716,297.95211 278.9917,298.50469 C 278.99625,299.05727 261.05551,317.44962 239.1234,339.37659 L 199.24684,379.2438 L 168.04902,375.4579 L 136.8512,371.67199 L 120.93758,387.56228 C 108.54874,399.93298 105.29818,403.70935 106.26197,404.61185 C 106.94286,405.24944 122.34996,413.52272 140.49996,422.99691 C 158.64996,432.4711 174.26138,440.9601 175.192,441.86135 C 176.12262,442.76261 184.77673,458.54411 194.42334,476.93135 C 204.06996,495.31859 212.43143,510.83147 213.00438,511.40442 C 213.72669,512.12673 218.9282,507.54837 229.96802,496.47308 L 245.88993,480.5 L 242.4504,452 C 240.55866,436.325 239.00842,422.16324 239.00542,420.52943 C 239.00068,417.95063 244.17421,412.37848 278.23292,378.27943 C 299.81105,356.67574 318.15941,339 319.00706,339 C 320.03899,339 337.3451,371.38142 371.38274,437 C 399.34172,490.9 422.72664,535 423.34923,535 C 423.97181,535 433.14792,526.34183 443.74058,515.75962 z " id="path2313" style="fill:#000000"/></g></svg>

<svg
      xmlns="http://www.w3.org/2000/svg"
      width="586"
      height="586"
      version="1"
    >
      <g transform="translate(-11.346 -14.183)">
        <path
          fill="#fdfdfd"
          d="M65.24 311.755V76.587h471.173v470.336H65.241V311.755z"
        ></path>
        <path
          fill="#000"
          d="M69.851 593.998c-25.427-2.467-40.956-14.906-47.527-38.07-1.742-6.14-1.824-17.18-1.824-246.428 0-226.776.098-240.382 1.779-246.935 2.655-10.357 7.467-19.302 13.747-25.56 6.65-6.626 12.873-10.12 23.504-13.198L67.5 21.5H307c228.657 0 239.79.082 245.92 1.821 23.9 6.781 35.964 22.015 39.057 49.318.8 7.063 1.033 75.981.82 242.861l-.298 233-2.184 7.654c-3.052 10.694-6.674 17.346-12.666 23.262-6.292 6.212-13.029 9.925-23.325 12.854l-7.824 2.226-234.5.122c-128.975.067-237.942-.211-242.149-.62zm373.89-78.238c12.317-12.305 19.255-19.965 19.248-21.25-.006-1.106-13.506-54.174-30-117.931S403 259.732 403 258.599c0-1.386 18.274-20.373 55.897-58.079 62.056-62.192 61.47-61.491 61.447-73.52-.016-7.858-1.818-12.39-7.29-18.326-5.919-6.42-12.573-9.034-21.514-8.45-4.544.297-8.635 1.26-11.54 2.717-3.154 1.582-21.145 18.869-60.155 57.8l-55.655 55.545-121.717-32.268-121.716-32.268-20.129 20.172c-17.747 17.785-19.93 20.32-18.46 21.425.917.69 45.576 24.406 99.242 52.703 53.665 28.298 97.577 51.902 97.582 52.455.004.552-17.936 18.945-39.869 40.872l-39.876 39.867-31.198-3.786-31.198-3.786-15.913 15.89c-12.39 12.371-15.64 16.147-14.676 17.05.68.637 16.088 8.91 34.238 18.385 18.15 9.474 33.761 17.963 34.692 18.864.93.902 9.585 16.683 19.231 35.07 9.647 18.388 18.008 33.9 18.581 34.473.723.723 5.924-3.856 16.964-14.93L245.89 480.5l-3.44-28.5c-1.891-15.675-3.442-29.837-3.445-31.47-.004-2.58 5.17-8.152 39.228-42.25C299.81 356.675 318.159 339 319.007 339c1.032 0 18.338 32.381 52.376 98 27.959 53.9 51.344 98 51.966 98 .623 0 9.799-8.658 20.392-19.24z"
        ></path>
      </g>
    </svg>
